client/public/images/icon_measure.svg

<svg fill="none" height="20" viewBox="0 0 22 22" width="20" xmlns="http://www.w3.org/2000/svg"><g stroke="#fff"><path d="m18.2284 20.383-2.4667-1.4608c-.4429-.3156-.6668-.8562-.5767-1.3925v-1.52l-.9216-.9225c-.2343-.2338-.3514-.5604-.3192-.8898.0323-.3295.2106-.6271.4858-.811.4384-.2917 1.0217-.2339 1.3942.1383l1.3 1.3008"/><path d="m15.3931 8.83301 3.4683 3.06919c.4543.6361.6985 1.3983.6983 2.18v1.8175c.0001.522.2075 1.0226.5767 1.3916l.2383.2384"/><path d="m8.13653 20.3828 2.02167-2.485c.359-.4445.3003-1.0937-.1325-1.4667-.20605-.1774-.47549-.2633-.74623-.2378-.27074.0254-.51943.1601-.68877.3728l-.6975.5967v-4.905c0-.6903-.55964-1.25-1.25-1.25s-1.25.5597-1.25 1.25v3.125h-1.0325c-1.51653.0179-2.73231 1.2601-2.7175 2.7767v2.2225"/><path d="m15.3931 13.2605v-8.50171c0-.34518-.2799-.625-.625-.625h-3.75c0-1.38071-1.11932-2.5-2.50003-2.5-1.38072 0-2.5 1.11929-2.5 2.5h-3.75c-.34518 0-.625.27982-.625.625v8.12421"/><path d="m8.51807 3.82129c.17259 0 .3125.13991.3125.3125s-.13991.3125-.3125.3125-.3125-.13991-.3125-.3125c-.00022-.08295.03263-.16256.09128-.22122.05865-.05865.13827-.0915.22122-.09128"/></g></svg>

<svg width="20" height="20" viewBox="0 0 22 22" fill="none" xmlns="http://www.w3.org/2000/svg">
<path d="M18.2284 20.383L15.7617 18.9222C15.3188 18.6066 15.0949 18.066 15.185 17.5297V16.0097L14.2634 15.0872C14.0291 14.8534 13.912 14.5268 13.9442 14.1974C13.9765 13.8679 14.1548 13.5703 14.43 13.3864V13.3864C14.8684 13.0947 15.4517 13.1525 15.8242 13.5247L17.1242 14.8255" stroke="white" strokeWidth="1.5" strokeLinecap="round" strokeLinejoin="round"/>
<path d="M15.3931 8.83301L18.8614 11.9022C19.3157 12.5383 19.5599 13.3005 19.5597 14.0822V15.8997C19.5598 16.4217 19.7672 16.9223 20.1364 17.2913L20.3747 17.5297" stroke="white" strokeWidth="1.5" strokeLinecap="round" strokeLinejoin="round"/>
<path d="M8.13653 20.3828L10.1582 17.8978C10.5172 17.4533 10.4585 16.8041 10.0257 16.4311C9.81965 16.2537 9.55021 16.1678 9.27947 16.1933C9.00873 16.2187 8.76004 16.3534 8.5907 16.5661L7.8932 17.1628V12.2578C7.8932 11.5675 7.33356 11.0078 6.6432 11.0078C5.95284 11.0078 5.3932 11.5675 5.3932 12.2578V15.3828H4.3607C2.84417 15.4007 1.62839 16.6429 1.6432 18.1595V20.382" stroke="white" strokeWidth="1.5" strokeLinecap="round" strokeLinejoin="round"/>
<path d="M15.3931 13.2605V4.75879C15.3931 4.41361 15.1132 4.13379 14.7681 4.13379H11.0181C11.0181 2.75308 9.89878 1.63379 8.51807 1.63379C7.13735 1.63379 6.01807 2.75308 6.01807 4.13379H2.26807C1.92289 4.13379 1.64307 4.41361 1.64307 4.75879V12.883" stroke="white" strokeWidth="1.5" strokeLinecap="round" strokeLinejoin="round"/>
<path d="M8.51807 3.82129C8.69066 3.82129 8.83057 3.9612 8.83057 4.13379C8.83057 4.30638 8.69066 4.44629 8.51807 4.44629C8.34548 4.44629 8.20557 4.30638 8.20557 4.13379C8.20535 4.05084 8.2382 3.97123 8.29685 3.91257C8.3555 3.85392 8.43512 3.82107 8.51807 3.82129" stroke="white" strokeWidth="1.5" strokeLinecap="round" strokeLinejoin="round"/>
</svg>
